X: 29820
T: O'Connor Donn's
R: reel
M: 4/4
K: Gmajor
|:B2AG FGAG|B2AG BAAG|FADA FAfe|dcBA B2GA|
B2AG FGAG|B2AG BAAG|FADA FAfe|dcBA G4:|
f2af d2fa|d2fa d3d|faaf d3d|egga g3g|
fada fada|faag fddg|faab c'bag|fgaf g4|
faaf d2fa|d2fa d3d|faaf d3d|egga g3g|
fada fada|faag fddg|faab c'bag|fgaf g4||

